docs/abcrace/images/upper/C.svg

<svg xmlns="http://www.w3.org/2000/svg" width="695" height="874" viewBox="-10 0 695 874"><path fill="currentColor" d="M623 227q-30-1-45-26-57-96-154-111-23-3-48-3-146 0-220 125-56 93-56 230 0 201 106 291 66 54 159 54 143 0 211-120 1-1 1-2 18-28 48-29 36 0 54 26 6 10 6 19-1 13-8 26-98 166-313 167-194 0-294-141-80-113-80-290 0-219 123-341Q217 0 377 0q206 1 299 153 7 12 7 25 0 32-35 45-12 4-25 4z"/></svg>

<svg xmlns="http://www.w3.org/2000/svg" xmlns:svg="http://www.w3.org/2000/svg" id="svg4" width="695" height="874" version="1.1" viewBox="-10 0 695 874"><path id="path2" fill="currentColor" d="M 623,227 Q 593,226 578,201 521,105 424,90 401,87 376,87 230,87 156,212 q -56,93 -56,230 0,201 106,291 66,54 159,54 143,0 211,-120 1,-1 1,-2 18,-28 48,-29 36,0 54,26 6,10 6,19 -1,13 -8,26 Q 579,873 364,874 170,874 70,733 -10,620 -10,443 -10,224 113,102 217,0 377,0 q 206,1 299,153 7,12 7,25 0,32 -35,45 -12,4 -25,4 z"/></svg>
